actions/24/view-refresh-symbolic.svg

<?xml version="1.0" encoding="UTF-8" standalone="no"?>
<svg
   height="24"
   width="24"
   version="1.1"
   id="svg12129"
   sodipodi:docname="view-refresh-symbolic.svg"
   inkscape:version="1.2.2 (b0a8486541, 2022-12-01)"
   xmlns:inkscape="http://www.inkscape.org/namespaces/inkscape"
   xmlns:sodipodi="http://sodipodi.sourceforge.net/DTD/sodipodi-0.dtd"
   xmlns="http://www.w3.org/2000/svg"
   xmlns:svg="http://www.w3.org/2000/svg">
  <defs
     id="defs12133" />
  <sodipodi:namedview
     id="namedview12131"
     pagecolor="#ffffff"
     bordercolor="#000000"
     borderopacity="0.25"
     inkscape:showpageshadow="2"
     inkscape:pageopacity="0.0"
     inkscape:pagecheckerboard="0"
     inkscape:deskcolor="#d1d1d1"
     showgrid="false"
     inkscape:zoom="8.375"
     inkscape:cx="27.462687"
     inkscape:cy="1.0746269"
     inkscape:window-width="1278"
     inkscape:window-height="1005"
     inkscape:window-x="640"
     inkscape:window-y="23"
     inkscape:window-maximized="0"
     inkscape:current-layer="svg12129" />
  <path
     id="path12125"
     style="isolation:auto;mix-blend-mode:normal;fill:#555761;fill-opacity:1;marker:none"
     d="M 12.779297,2.5 C 12.34808,2.5 12,2.8343197 12,3.25 V 5 C 5.7645572,5.0015949 2.6417259,12.540164 7.0507812,16.949219 11.460303,21.35874 19.001953,18.236762 19.001953,12 h -3 c 0,3.563863 -4.310351,5.347852 -6.830078,2.828125 C 6.6526136,12.308864 8.4374518,8.0015909 12,8 v 1.75 c 0,0.415678 0.34808,0.75 0.779297,0.75 0.232409,0 0.41368,-0.126001 0.582031,-0.251953 l 4.426227,-3.1875001 c 0.150608,-0.1126773 0.212891,-0.316234 0.212891,-0.515625 0,-0.1993916 -0.06397,-0.3987696 -0.212891,-0.5136719 L 13.361328,2.7519531 C 13.194862,2.6235115 13.011706,2.5 12.779297,2.5 Z" />
</svg>

<svg
        xmlns='http://www.w3.org/2000/svg'
        xmlns:svg='http://www.w3.org/2000/svg'
        id='svg12129'
        width='24'
        height='24'>
  <path
          id='path12125'
          fill='url(#gpa:foreground) #555761'
          fill-opacity='1'
          fill-rule='nonzero'
          marker-start='none'
          marker-mid='none'
          marker-end='none'
          d='M 12.7793 2.5 C 12.3481 2.5, 12 2.83432, 12 3.25 L 12 5 C 5.76456 5.0016, 2.64173 12.5402, 7.05078 16.9492 C 11.4603 21.3587, 19.002 18.2368, 19.002 12 L 16.002 12 C 16.002 15.5639, 11.6916 17.3479, 9.17188 14.8281 C 6.65261 12.3089, 8.43745 8.00159, 12 8 L 12 9.75 C 12 10.1657, 12.3481 10.5, 12.7793 10.5 C 13.0117 10.5, 13.193 10.374, 13.3613 10.248 L 17.7876 7.06055 C 17.9382 6.94787, 18.0004 6.74431, 18.0004 6.54492 C 18.0004 6.34553, 17.9365 6.14615, 17.7876 6.03125 L 13.3613 2.75195 C 13.1949 2.62351, 13.0117 2.5, 12.7793 2.5 Z'
          class="foreground"
          style='mix-blend-mode: normal; isolation: auto'>
  </path>
</svg>
